X:1
T:Sorgendo l'Alba
T:Sorgendo l'Alba
T:Claudio Saracini
T:Source : Le terze Musische per cantar e sonar---Venetia---A.Vincenti---1620. Editor : André Vierendeels (08/12/15).
T:Notes : Original clefs : C1, F4 
T:Aria
C:Claudio Saracini
%%score 1 2
L:1/8
Q:1/4=80
M:4/4
K:F
V:1 treble nm="Soprano" snm="S"
V:2 bass nm="BC" snm="BC"
V:1
 c2 F/G/A/B/ c2 A2 | d4 d4 | z2 _e2 d3 d | c4 c4 | z2 A2 B2 c2 | d3 d e4- | e4 d4 :: %7
w: Sor- gen- * * * * do|l'Al- ba,|che'l tut- to'in|al- ba,|ne- l'ho- re|ma- tu- ti-|* ne,|
w: I va- * * * * ghi'au-|gel- li,-|l'ra- gli'ar- bo-|scel- li,|dol- ce d'a-|mor can- tan-|* do,|
w: E'a- no _ _ _ _ vi'al-|bo- ri,|i- lo- ro'a-|mo- ri,|sfo- gan la-|sce- vi'e ga-|* i,|
w: Al tri- * * * * si|la- gna,|che la cam-|pa- gna,|tut- ta ne|suo- na'in- tor-|* no,|
w: Gli ri- * * * * spon-|d'ec- cho,|dal ca- vo|spe- co,|fat- to di|lei pie- to-|* so,|
w: La De- * * * * a|gri- do,|el suo cu-|pi- do,|al- tri chia-|ma cru- de-|* le,|
w: Co- si _ _ _ _ do-|len- ti,|sta- no- s'in-|ten- ti,|mer- cè chia-|man- do'in va-|* no,|
w: Che non _ _ _ _ ri-|spon- de,|al- tro che|l'on- de,|a la mia|stan- ca vo-|* ce,|
 A/G/A/B/ c/A/B/c/ d2 d2 | d/c/d/e/ f2 e/d/ c/B/ c/B/c/d/ | B8 | B/A/B/c/ d2 B3 c | A3 A G2 G2 | %12
w: da _ _ _ l'O- * ri- en- * te,|Lie- * * * * ta'e _ ri- * den- * * *|te,|Ri- * * e- * ca di|fre- sche bri- ne,|
w: for- * * * man _ con- cen- * ti,|con _ _ _ _ gra- * vi'ac- * cen- * * *|ti|che'a _ _ se- * i mar-|tir da ban- do,|
w: il _ _ _ con _ lo ver- * si,|po- * * * * li- * tie _ ter- * * *|si,|spie- * * ga- * no'a l'a-|ria i la- i,|
w: e _ _ _ si _ mar- ti- * ra,|lan- * * * * gu'e _ so- * spi- * * *|ra,|men- * * tre _ ri- sor-|ge'il gi- or- no,|
w: e _ _ _ del _ suo can- * to,|e _ _ _ _ del _ suo _ pian- * * *|to,|at- * * ter- * na'il suon|do- gli- o- so,|
w: e _ _ _ man _ d'in- Cie- * lo,|al _ _ _ _ Dio _ di _ De- * * *|lo,|li _ _ su- _ on di|sue que- rel- le,|
w: co- * * * si _ chia- mi- * o,|bel _ _ _ _ a- * mor _ mi- * * *|o,|ma'in- * * lo- * co'in- vo-|i- to'e stra- no,|
w: go- * * * de _ mi fa- * cio,|so _ _ _ _ ven _ te'in _ giac _ _ _|cio,|men- * * tre'il _ fo- *|co mi co- re,|
 A/G/A/B/ c2 A3 B | G3 A F4 | F8 :| %15
w: Ri- * * e- * ca di|fre- sche bri-|ne.|
w: che'a _ _ se- * i mar-|tir da ban-|do.|
w: spie- * * ga _ no'a l'a-|ria i la-|i.|
w: men- * * tre _ ri- sor-|de'il gi- or-|no.|
w: at- * * ter- * na'il suon|do- gli- o-|so.|
w: li _ _ su- * on di|sue que- rel-|le.|
w: ma'in- * * lo- * co'in vo-|i- to'i stra-|no.|
w: men- * * tr'il _ fo- co|mi- * co-|re.|
V:2
 F,4 F,,4 | B,,4 B,,4 | C,4 G,,4 | C,4 C,4 | F,,4 G,,2 A,,2 | B,,2 G,,2 A,,4- | A,,4 D,4 :: %7
 F,2 F,,2 B,,2 B,,2 | B,,4 B,,2 F,,2 | B,,4 B,,4 | G,,6 C,2 | D,4 G,,4 | F,,4 F,4 | C,4 F,,4 | %14
 F,,8 :| %15

